X:1
T:Title
%%score ( 1 2 ) ( 3 4 )
L:1/8
Q:1/4=100
M:4/4
K:F
V:1 treble nm="Midi_20"
V:2 treble 
V:3 bass nm="Midi_20"
V:4 bass 
V:1
"^St Francis (10. 10. 8 8 4.)""^Sir Arthur Sullivan\n(1842-1900)""^O Father, Thou who hast created all" A8 | %1
w: 1.~O~Father,~Thou~who~hast~cre\-~~|
w: 2.~O~Son~of~God,~who~diedst~for~~|
w: 3.~O~Holy~Ghost,~who~broodedst~|
w: 4.~O~Triune~God,~what~Thou~com-|
 c2 B2 A2 G2 | F3 F G2 B2 | A8 || A8 | c3 c B2 A2 | G2 G2 A2 G2 | G6 || G2 | G2 (FG) A2 A2 | %10
w: a- ted all, In|wis- est love, we|pray.|Look~on~this~babe,~who~at~Thy~~~~~|gra- cious call Is|enter- ing on life's|way;|Bend|o'er * * in Thy|
w: us, be- hold, We|bring our child to|Thee;|Thou~tender~Shepherd,~take~~~~~~~~~~~|to Thy fold, Thine|own for ay to|be;|De-|fend * * through this|
w: o'er the wave, Des-|cend up- on this|child;|Give~~~~~~~undying~life,~~~~~~~~~~~~~~~~~~|spi- rit lave With|wa- ters un- de-|filed;|Grant|* while * yet a|
w: mand'st is done; We|speak, but Thine the|might;|This~child~hath~scarce~yet~seen~our|earth- ly sun, Yet|pour on * Thy|light,|In|faith and * hope, in|
 G2 (FG) A2 A2 | B2 (cd) c2 A2 | B2 B2 A4 || G4 A2 G2 | %14
w: ten- der\- * ness, Thine|im- age * on *|soul im- press;|O, Fa- ther,|
w: earth- ly * strife, And|lead * * on the|path of life,|O Son of|
w: babe, to * be A|child of * God, a|home for Thee,|O Ho- ly|
w: joy and * love, Thou|Sun of * all, be-|low, a- bove,|O Tri- une|
"^Albert Knapp (1798-1864)\ntrans. by Catherine Winkworth (1827-78)" F8 |] %15
w: hear.|
w: God.|
w: Ghost.|
w: God.|
V:2
 F8 | F2 E2 F2 E2 | F3 F F2 E2 | F8 || F8 | F3 F E2 F2 | G2 G2 F2 F2 | E6 || E2 | E2 (DC) C2 F2 | %10
 E2 (DC) C2 F2 | F2 F2 F2 ^F2 | G2 D2 ^C4 || D4 C2 B,2 | A,8 |] %15
V:3
 C8 | C2 C2 C2 B,2 | A,2 C2 D2 C2 | C8 || C8 | C3 C C2 C2 | C2 C2 =B,2 B,2 | C6 || C2 | %9
w: |||||||||
w: ||||~~~~~~~~~~~~~~~~~~~~~~~~~~~~~~~~~~~~~him|||||
w: ||||~~~~~~~~~~~~~~~~~~~~~his|||||
w: ||||||* * him *|||
 B,2 (A,G,) F,2 C2 | B,2 (A,G,) F,2 C2 | B,2 (A,B,) C2 C2 | B,2 G,2 E,4 || D,4 E,2 E,2 | F,8 |] %15
w: * him * * *||* * * * his||||
w: * him * * *||* him * * *||||
w: him, * * * *||||||
w: ||||||
V:4
 F,8 | A,2 G,2 F,2 C,2 | D,2 A,,2 B,,2 C,2 | F,8 || F,8 | A,3 A, G,2 F,2 | E,2 E,2 D,2 D,2 | C,6 || %8
w: ||||||||
w: ||||||||
w: ||||him~~~~~~~~~~~~~~~~~~~~~~~~~~~~~||||
 C,2 | C,2 (D,E,) F,2 F,2 | C,2 (D,E,) F,2 F,2 | D,2 (C,B,,) A,,2 D,2 | G,,2 G,,2 A,,4 || %13
w: |||||
w: |||||
w: |||||
 B,,4 C,2 C,2 | F,,8 |] %15
w: ||
w: ||
w: ||

